dist/img/food.svg

<svg width="64" height="64" viewBox="0 0 64 64" fill="none" xmlns="http://www.w3.org/2000/svg">
<g clip-path="url(#clip0)">
<path opacity="0.8" d="M8 29H14V48H8V29Z" fill="#216E7A"/>
<path d="M56.427 36.815C55.49 36.122 54.239 35.92 52.992 36.265L37.703 40.492C37.891 40.028 38 39.523 38 38.991C38 36.79 36.206 35 34 35H24.623C23.957 34 22.261 31 20 31H16V30C16 28.346 14.654 27 13 27H9C7.346 27 6 28.346 6 30V47C6 48.654 7.346 50 9 50H13C14.654 50 16 48.655 16 47V46.248L28.139 54.45C29.663 55.482 31.437 56 33.214 56C34.856 56 36.501 55.558 37.956 54.669L56.129 43.568C57.283 42.865 58 41.587 58 40.235V39.922C58 38.691 57.427 37.559 56.427 36.815ZM14 47C14 47.552 13.551 48 13 48H12V44H10V48H9C8.449 48 8 47.552 8 47V30C8 29.448 8.449 29 9 29H13C13.551 29 14 29.449 14 30V47ZM56 40.235C56 40.895 55.65 41.518 55.087 41.862L36.914 52.962C34.549 54.405 31.545 54.34 29.26 52.793L16 43.835V33H20C21.059 33 22.469 35.034 23.088 36.409L23.354 37H34C35.103 37 36 37.893 36 38.99C36 40.098 35.103 41 34 41H24V43H34H36L53.524 38.193C54.165 38.015 54.804 38.1 55.234 38.422C55.721 38.783 56 39.33 56 39.922V40.235Z" fill="#216E7A"/>
<path opacity="0.8" d="M38.4999 17.2332C37.7334 17.2332 36.9983 17.5376 36.4563 18.0796C35.9144 18.6216 35.6099 19.3567 35.6099 20.1232C35.6099 20.8897 35.9144 21.6248 36.4563 22.1668C36.9983 22.7088 37.7334 23.0132 38.4999 23.0132C39.2664 23.0132 40.0015 22.7088 40.5435 22.1668C41.0855 21.6248 41.39 20.8897 41.39 20.1232C41.39 19.3567 41.0855 18.6216 40.5435 18.0796C40.0015 17.5376 39.2664 17.2332 38.4999 17.2332Z" fill="#216E7A"/>
<path d="M49.194 10.5622C47.603 9.25509 45.5235 8.84347 43 9.34123C41.431 9.68464 40.3464 10.1818 39.589 10.723L39.078 10.4431V8.56308C39.078 8.41855 39.0953 8.2295 39.1797 8.14567C39.3526 7.97397 39.9648 7.97975 40.5019 7.98322L43.1249 7.98553C45.3553 7.98553 47.1717 6.17022 47.1717 3.93981V1.04688H41.968C40.4955 1.04688 39.2075 1.84064 38.4999 3.02002C37.7922 1.84064 36.5042 1.04688 35.0317 1.04688H29.828V3.93981C29.828 6.17022 31.6445 7.98553 33.8749 7.98553L36.4972 7.9838C37.0372 7.97975 37.6465 7.97455 37.82 8.14625C37.9038 8.23008 37.9217 8.41912 37.9217 8.56366V10.4437L37.3754 10.7461C36.6181 10.2078 35.5381 9.71528 33.9882 9.37534C31.4762 8.88105 29.3927 9.29152 27.8005 10.5992C24.6653 13.1771 24.6289 18.2767 24.6289 18.4924C24.6289 23.0179 27.6421 27.6909 31.6375 29.3623C32.5851 29.7583 33.521 29.9549 34.4235 29.9549C35.9018 29.9549 37.2922 29.4288 38.5004 28.3939C40.4447 30.0572 42.8583 30.4041 45.3553 29.36C49.3553 27.6869 52.372 23.0081 52.372 18.4768C52.3714 18.2605 52.3355 13.1447 49.194 10.5622ZM41.968 2.20312H46.0155V3.93981C46.0155 5.53312 44.7182 6.82986 43.1249 6.82986L40.5117 6.82812C39.9978 6.82639 39.367 6.8235 39.078 6.93681V6.82986C39.078 5.87364 39.8556 5.09375 40.8118 5.09375H42.5467V3.9375H40.8118C40.192 3.9375 39.6203 4.13753 39.1491 4.47111C39.4353 3.17669 40.5886 2.20312 41.968 2.20312ZM36.7684 6.82697C36.6765 6.82697 36.5828 6.82755 36.4891 6.82812L33.8749 6.82928C32.2815 6.82928 30.9842 5.53255 30.9842 3.93923V2.20312H35.0317C36.4111 2.20312 37.5645 3.17669 37.85 4.47111C37.3795 4.13753 36.8077 3.9375 36.1879 3.9375H34.453V5.09375H36.1879C37.1442 5.09375 37.9217 5.87364 37.9217 6.82928V6.9345C37.3436 6.84084 37.18 6.82697 36.7684 6.82697ZM44.909 28.2933C42.6924 29.2206 40.5603 28.8298 38.9057 27.1972L38.4999 26.7971L38.094 27.1972C36.436 28.8327 34.3021 29.2235 32.0827 28.2956C28.5509 26.8185 25.784 22.5121 25.784 18.4918C25.784 18.4444 25.8158 13.7263 28.5341 11.4919C29.4765 10.7172 30.6507 10.3287 32.0341 10.3287C32.5752 10.3287 33.1482 10.3882 33.7523 10.5073C37.217 11.2664 37.9217 12.7834 37.9217 13.4361V13.7656H39.078V13.3592C39.078 12.5822 39.892 11.2057 43.2359 10.4732C45.3917 10.0465 47.1469 10.3778 48.4569 11.4531C51.1764 13.6841 51.2157 18.4299 51.2157 18.4773C51.2157 22.5028 48.4453 26.8145 44.909 28.2933Z" fill="#216E7A"/>
</g>
<defs>
<clipPath id="clip0">
<rect width="64" height="64" fill="white"/>
</clipPath>
</defs>
</svg>

<svg width="64" height="64" fill="none" xmlns="http://www.w3.org/2000/svg"><g clip-path="url(#clip0)" fill="#216E7A"><path opacity=".8" d="M8 29h6v19H8V29z"/><path d="M56.427 36.815c-.937-.693-2.188-.895-3.435-.55l-15.289 4.227c.188-.464.297-.969.297-1.501A4 4 0 0034 35h-9.377c-.666-1-2.362-4-4.623-4h-4v-1c0-1.654-1.346-3-3-3H9c-1.654 0-3 1.346-3 3v17c0 1.654 1.346 3 3 3h4c1.654 0 3-1.345 3-3v-.752l12.139 8.202A9.046 9.046 0 0033.214 56a9.09 9.09 0 004.742-1.331l18.173-11.101A3.926 3.926 0 0058 40.235v-.313a3.843 3.843 0 00-1.573-3.107zM14 47c0 .552-.449 1-1 1h-1v-4h-2v4H9c-.551 0-1-.448-1-1V30c0-.552.449-1 1-1h4c.551 0 1 .449 1 1v17zm42-6.765c0 .66-.35 1.283-.913 1.627l-18.173 11.1a7.093 7.093 0 01-7.654-.169L16 43.835V33h4c1.059 0 2.469 2.034 3.088 3.409l.266.591H34c1.103 0 2 .893 2 1.99 0 1.108-.897 2.01-2 2.01H24v2h12l17.524-4.807c.641-.178 1.28-.093 1.71.229.487.361.766.908.766 1.5v.313z"/><path opacity=".8" d="M38.5 17.233a2.89 2.89 0 100 5.78 2.89 2.89 0 000-5.78z"/><path d="M49.194 10.562c-1.591-1.307-3.67-1.719-6.194-1.22-1.569.343-2.654.84-3.411 1.381l-.511-.28v-1.88c0-.144.017-.334.102-.417.173-.172.785-.166 1.322-.163l2.623.003a4.052 4.052 0 004.047-4.046V1.047h-5.204c-1.473 0-2.76.794-3.468 1.973a4.044 4.044 0 00-3.468-1.973h-5.204V3.94a4.052 4.052 0 004.047 4.046l2.622-.002c.54-.004 1.15-.01 1.323.162.084.084.102.273.102.418v1.88l-.547.302c-.757-.538-1.837-1.03-3.387-1.37-2.512-.495-4.595-.084-6.188 1.223-3.135 2.578-3.171 7.678-3.171 7.893 0 4.526 3.013 9.199 7.008 10.87.948.396 1.884.593 2.786.593 1.479 0 2.87-.526 4.077-1.561 1.945 1.663 4.358 2.01 6.855.966 4-1.673 7.017-6.352 7.017-10.883 0-.216-.036-5.332-3.178-7.915zm-7.226-8.359h4.047V3.94a2.894 2.894 0 01-2.89 2.89l-2.613-.002c-.514-.002-1.145-.005-1.434.109V6.83c0-.956.778-1.736 1.734-1.736h1.735V3.937h-1.735c-.62 0-1.192.2-1.663.534a2.893 2.893 0 012.819-2.268zm-5.2 4.624l-.279.001-2.614.001a2.894 2.894 0 01-2.89-2.89V2.203h4.047c1.38 0 2.533.974 2.818 2.268a2.864 2.864 0 00-1.662-.534h-1.735v1.157h1.735c.956 0 1.734.78 1.734 1.735v.106c-.578-.094-.742-.108-1.154-.108zm8.141 21.466c-2.217.928-4.349.537-6.003-1.096l-.406-.4-.406.4c-1.658 1.636-3.792 2.027-6.011 1.099-3.532-1.477-6.299-5.784-6.299-9.804 0-.048.032-4.766 2.75-7 .943-.775 2.117-1.163 3.5-1.163.541 0 1.114.06 1.718.178 3.465.76 4.17 2.276 4.17 2.93v.329h1.156v-.407c0-.777.814-2.153 4.158-2.886 2.156-.427 3.91-.095 5.22.98 2.72 2.231 2.76 6.977 2.76 7.024 0 4.026-2.77 8.337-6.307 9.816z"/></g><defs><clipPath id="clip0"><path fill="#fff" d="M0 0h64v64H0z"/></clipPath></defs></svg>
